icons/linear-new-arrow-chevron-down-circle.svg

<svg xmlns="http://www.w3.org/2000/svg" width="32px" height="32px" viewBox="0 0 32 32" version="1.1">
    <title>linear-new-arrow-chevron-down-circle</title>
    <g id="linear-new-arrow-chevron-down-circle" stroke-width="1" fill-rule="evenodd">
        <path d="M16,2 C23.7319865,2 30,8.2680135 30,16 C30,23.7319865 23.7319865,30 16,30 C8.2680135,30 2,23.7319865 2,16 C2,8.2680135 8.2680135,2 16,2 Z M16,4 C9.372583,4 4,9.372583 4,16 C4,22.627417 9.372583,28 16,28 C22.627417,28 28,22.627417 28,16 C28,9.372583 22.627417,4 16,4 Z M11.7071068,13.2928932 L16,17.585 L20.2928932,13.2928932 C20.6533772,12.9324093 21.2206082,12.9046797 21.6128994,13.2097046 L21.7071068,13.2928932 C22.0976311,13.6834175 22.0976311,14.3165825 21.7071068,14.7071068 L16.7071068,19.7071068 C16.3165825,20.0976311 15.6834175,20.0976311 15.2928932,19.7071068 L10.2928932,14.7071068 C9.90236893,14.3165825 9.90236893,13.6834175 10.2928932,13.2928932 C10.6834175,12.9023689 11.3165825,12.9023689 11.7071068,13.2928932 Z" id="&#24418;&#29366;" fill-rule="nonzero" />
    </g>
</svg>

<svg xmlns="http://www.w3.org/2000/svg" viewBox="0 0 32 32"><path fill="currentColor" d="M16 2c7.732 0 14 6.268 14 14s-6.268 14-14 14S2 23.732 2 16 8.268 2 16 2m0 2C9.373 4 4 9.373 4 16s5.373 12 12 12 12-5.373 12-12S22.627 4 16 4m-4.293 9.293L16 17.585l4.293-4.292a1 1 0 0 1 1.32-.083l.094.083a1 1 0 0 1 0 1.414l-5 5a1 1 0 0 1-1.414 0l-5-5a1 1 0 0 1 1.414-1.414"/></svg>
